X:665
T:Hardiman the Fiddler
C:Chieftains
R:slip jig
Z:
M:9/8
K:DMix
A2G FDE F2G|ABA AGA cAG|A2G FDE F2G|Add ded cAG:|
||Add d2e f3|Add ded cAG|Add d2e f2g|agf ged cAG|
|Add d2e f3|Add ded cAG|dcA (3Bcd e f2g|agf ged cAG||
